X:1
T:Kinrara [1]
T:Kinrara [1]
T:Kinrara Strathspey
T:Marshall
C:Marshall
L:1/8
M:2/2
K:Bb
V:1 treble 
V:1
 F | B>cBd FB G/F/E/D/ | B<F B>d c<CCA | B>c Bd FB G/F/E/D/ | E<g f>e d<BB :| F | %6
 df e/d/c/B/ bBeg | f>g e/d/c/B/ d<c cd/e/ | fBdB gBeg | FB d/c/B/c/ dBBd | fg/a/ bB gBfB | %11
 e>c e/d/c B/ Ac{dcB}cd | B<F G>B F<B A/G/F/E/ | E<g f>e d<BB || %14

